X:1
T:MacPherson's Lament
M:C
L:1/8
Q:80
C:Traditional
S:Slow Air
K:HP
[| {g}A2 | \
{Gdc}d2{e}A2{gfg}f2{gef}ed | \
{g}ed{g}ef{gef}e2{g}AB |
{Gdc}d2{e}A2{gfg}f2{gef}ed | \
{gBG}B6{g}AB | \
{Gdc}d2{e}A2{gfg}f2{gef}ed |
{g}ed{g}ef{gef}e2{g}AB | \
{Gdc}d2-df{g}ed{g}B3/2d/2 | \
{G}A6{g}f{gf}g |
{ag}a2-af{gf}gf{gef}ed | \
{gfg}f2{gef}e2{A}e2{g}f{gf}g | \
{ag}a2-af{gef}e2d2 |
{gBG}B6{g}f{gf}g | \
{ag}a2-af{gf}gf{gef}ed | \
{gfg}f2{gef}e2{A}e2{g}AB |
{Gdc}d2-df{g}ed{g}B3/2d/2 | \
{G}A6|] [ | \
{g}A2 |
{Gdc}d2{e}A2{gfg}f2{gef}ed | \
{g}ed{g}ef{gef}e2{g}AB | \
{Gdc}d2{e}A2{gfg}f2{gef}ed |
{gBG}B6{g}AB | \
{Gdc}d2{e}A2{gfg}f2{gef}ed | \
{g}ed{g}ef{gef}e2{g}AB |
{Gdc}d2-df{g}ed{g}B3/2d/2 | \
{G}A6{g}f{gf}g | \
{ag}a2-af{gf}gf{gef}ed |
{gfg}f2{gef}e2{A}e2{g}f{gf}g | \
{ag}a2-af{gef}e2d2 | \
{gBG}B6{g}f{gf}g |
{ag}a2-af{gf}gf{gef}ed | \
{gfg}f2{gef}e2{A}e2{g}AB | \
{Gdc}d2-df{g}ed{g}B3/2d/2 |
{gdG}d6|]
